!!!!SEGMENT: pl-wtm--r-2014_smietanski-emil-wladyslaw-valse-caprice-op-7.krn
!!!id: 18xx:1998
!!!COM: Śmietański, Emil Władysław
!!!OTL: Valse-Caprice op. 7
!!!PDT: 1866
!!!SMS-siglum: PL-Wtm
!!!SMS-shelfmark: R 2014
!!!NIFC-rismID: 1001112889
!!!URL-scan: http://repozytorium.nifc.pl/skany/pl-wtm-nut--r2014
!!!ONB-nifc:
!!!SMS-variant:
!!!SMS-altvar:
**kern	**kern	**dynam
*part2	*part1	*part1
*staff2	*staff1	*
*I"[Piano]	*I"[Piano]	*
*I'[pf]	*I'[pf]	*
*clefF4	*clefG2	*
*k[f#c#g#d#a#]	*k[f#c#g#d#a#]	*
*M3/4	*M3/4	*
=1	=1	=1
!	!LO:TX:a:i:t=Valse-Caprice.	!
!	!LO:TX:a:i:t=Presto.	!
!	!LO:TX:a:t=P:problem: all\right:global	!
.	32qqddd#/	.
8gg#> 8ee>'<\	8ccc#|>/	.
8rg>	8rgg	.
.	32qqccc#/	.
8ff#> 8dd#>'<\	8bb|>/	.
8rg>	8rgg	.
.	32qqbb/	.
8ee> 8cc#>'<\	8aa#|>/	.
8rg>	8rgg	.
=2	=2	=2
.	32qqaa#/	.
8dd#> 8b>'<\	8gg#|>/	.
8rg>	8rgg	.
.	32qqgg#/	.
8cc#> 8a#>'<\	8ff#|>/	.
8rg>	8rgg	.
.	32qqff#/	.
8b> 8g#>'<\	8ee#X|>/	.
8rg>	8rgg	.
*clefG2	*	*
=3	=3	=3
.	32qqgg# 32qqa#/	.
!	!	!LO:HP:b
8f#|</	8ff# 8cc#|>\	<
8r	8r	.
.	32qqgg# 32qqa#/	.
8e#X|</	8ff# 8cc#|>\	.
8r	8r	.
.	32qqgg# 32qqa#/	.
8en|</	8ff# 8cc#|>\	.
8r	8r	.
=4	=4	=4
.	32qqaa# 32qqb/	.
8d#|</	8gg# 8dd#|>\	.
8r	8r	.
.	32qqgg# 32qqa#/	.
8c#|</	8ff# 8ee|>\	.
8r	8r	.
*clefF4	*	*
!LO:N:vis=8	!	!
4F#|>\	8fff#^^>|>\	.
.	8r	[
=5	=5	=5
!	!LO:TUP:a:problem:klamra łukowa	!
(>4d# 4F#^^\	12ff#L 12dd#\	.
.	12cc#\	.
.	12bJ 12f#\	.
!	!	!LO:DY:b:rj
4BB\)	8ff# 8dd#\	f
.	8r	.
!	!LO:TUP:a:problem:klamra łukowa	!
(>4dn 4G#^^\	12ee#XL 12ddn\	.
.	12cc#\	.
.	12bJ 12e#X\	.
=6	=6	=6
4BB\)	8ee#X 8ddn\	.
.	8r	.
*	*Xtuplet	*
4d# 4F#\	12ff#L 12dd#X\	.
.	12cc#\	.
.	12bJ 12f#\	.
4BB\	8ff# 8dd#\	.
.	8r	.
!!LO:LB:g=original
=7	=7	=7
!	!	!LO:DY:b
8AA#\L	8ff#L 8a#\	pp
8F#\	8ee#X 8g##X\	.
8A#\	8ff# 8a#\	.
8d#\	8ee#J 8g##\	.
8A#\	8ff# 8a#\	.
8F#\J	8r	.
=8	=8	=8
8AA#\L	8aa#L 8cc##X\	.
8G#\	8bb 8dd#\	.
8A#\	8aa# 8cc##\	.
8c##X\	8bbJ 8dd#\	.
8A#\	8aa# 8cc##\	.
8G#\J	8r	.
=9	=9	=9
8D#\L	8ff#L 8a#\	.
8A#\	8ee#X 8g##X\	.
8d#\	8ff# 8a#\	.
8e#X\	8ee#J 8g##\	.
8f#\	8ff# 8a#\	.
8a#\J	8r	.
*clefG2	*	*
=10	=10	=10
8dd#'>\	4r	.
8ryy	.	.
4r	8ff#'>\	.
.	8r	.
4r	8fff#'>\	.
.	8r	.
=11	=11	=11
.	32qqddd#\	.
8gg# 8ee'\	8ccc#|>\	.
8r	8r	.
.	32qqccc#\	.
8ff# 8dd#'\	8bb|>\	.
8r	8r	.
.	32qqbb\	.
8ee 8cc#'\	8aa#|>\	.
8r	8r	.
=12	=12	=12
.	32qqaa#\	.
8dd#|> 8b\	8gg#|>\	.
8r	8r	.
.	32qqgg#\	.
8cc#|> 8a#\	8ff#|>\	.
8r	8r	.
.	32qqff#\	.
8b|> 8g#\	8ee#X|>\	.
8r	8r	.
!!LO:LB:g=original
=13-	=13-	=13-
.	32qqgg#\ 32qqa#\	.
!	!	!LO:HP:b
8f#|</	8ff#|> 8cc#\	<
8r	8r	.
.	32qqgg#\ 32qqa#\	.
8e#X|</	8ff#|> 8cc#\	.
8r	8r	.
.	32qqgg#\ 32qqa#\	.
8en|</	8ff#|> 8cc#\	.
8r	8r	.
=14	=14	=14
.	32qqaa#\ 32qqb\	.
8d#|</	8gg#|> 8dd#\	.
8r	8r	.
.	32qqgg#\ 32qqa#\	.
8c#|</	8ff#|> 8ee\	.
8r	8r	.
*clefF4	*	*
8F#|</	8fff#^^>\	.
8r	8r	[
=15	=15	=15
*	*Xtuplet	*
!	!	!LO:DY:b
(>4d# 4F#\	12ff#L 12dd#\	f
.	12cc#\	.
.	12bJ 12f#\	.
4BB\)	8ff# 8dd#\	.
.	8r	.
(>4dn 4G#\	12ee#XL 12ddn\	.
.	12cc#\	.
.	12bJ 12e#X\	.
=16	=16	=16
4BB\)	8ee#X 8ddn\	.
.	8r	.
(>4d# 4F#\	12ff#L 12dd#X\	.
.	12cc#\	.
.	12bJ 12f#\	.
4BB\)	8ff# 8dd#\	.
.	8r	.
=17	=17	=17
!	!	!LO:DY:b
8C#\L	8ff#L 8a#\	pp
8F#\	8ee#X 8g##X\	.
8A#\	8ff# 8a#\	.
8f#\	8ee#J 8g##\	.
8A#\	8ff# 8a#\	.
8F#\J	8r	.
!!LO:LB:g=original
=18	=18	=18
8C#\L	8gg#L 8b\	.
8E#X\	8aa# 8cc#\	.
8B\	8gg# 8b\	.
8e#X\	8aa#J 8cc#\	.
8B\	8gg# 8b\	.
8E#\J	8r	.
=19	=19	=19
8FF#\L	8ff#L 8a#\	.
8C#\	8ee#X 8g##X\	.
8F#\	8ff# 8a#\	.
8G##X\	8ee#J 8g##\	.
8A#\	8ff# 8a#\	.
8c#\J	8r	.
=20	=20	=20
8f#\	4r	.
8r	.	.
4r	8ff#\	.
.	8r	.
4r	8fff#\	.
.	8r	.
=21	=21	=21
8F#\L	2r	.
8E#X\	.	.
!	!	!LO:DY:b
8F#\	.	p
8E#\	.	.
8F#\	4r	.
8E#\J	.	.
=22	=22	=22
8F#\L	2r	.
8E#X\	.	.
8F#\	.	.
!	!LO:TX:i:b:t=egualmente	!
8E#\	.	.
8F#\	4r	.
8E#\J	.	.
=23	=23	=23
8BB\L	8ff#L 8dd#\	.
8F#\	8cc#\	.
8B\	8b 8f#\	.
8d#\	8ff# 8dd#\	.
8B\	8cc#\	.
8F#\J	8bJ 8f#\	.
!!LO:LB:g=original
=24	=24	=24
8BB\L	8ee#XL 8ddn\	.
8G#\	8cc#\	.
8B\	8b 8e#X\	.
8dn\	8ee# 8dd\	.
8B\	8cc#\	.
8G#\J	8bJ 8e#\	.
=25	=25	=25
8BB\L	8ff#L 8dd#X\	.
8F#\	8cc#\	.
8B\	8b 8f#\	.
8d#\	8ff# 8dd#\	.
8B\	8cc#\	.
8F#\J	8bJ 8f#\	.
=26	=26	=26
8BB\L	8gg#L 8dd#\	.
8E#X\	8cc#\	.
8B\	8b 8g#\	.
8d#\	8gg# 8dd#\	.
8B\	8cc#\	.
8E#\J	8bJ 8g#\	.
=27	=27	=27
!	!	!LO:HP:b
8AA#\L	8ff#L 8a#\	<
8F#\	8ee#X 8g##X\	.
8A#\	8ff# 8a#\	.
8d#\	8ggn 8b\	.
8A#\	8gg#X 8b#X\	.
8F#\J	8aanJ 8cc#\	[[
=28	=28	=28
!	!	!LO:HP:b
8AA#\L	8aa#XL 8cc##X\	>
8G#\	8bb 8dd#\	.
8A#\	8aa# 8cc##\	.
8c##X\	8aan 8cc#X\	.
8A#\	8gg# 8b#X\	.
8G#\J	8ggnJ 8bn\	]
=29	=29	=29
8D#\L	8ff#L 8a#\	.
8F#\	8ee#X 8g##X\	.
8A#\	8ff# 8a#\	.
8d#\	8ee# 8g##\	.
8A#\	8ff# 8a#\	.
8F#\J	8ee#J 8g##\	.
!!LO:LB:g=original
=30	=30	=30
8C#\L	8ff#L 8a#\	.
8F#\	8ee#X 8g##X\	.
8A#\	8ff# 8a#\	.
8e\	8ee# 8g##\	.
8A#\	8ff# 8a#\	.
8F#\J	8ee#J 8g##\	.
=31	=31	=31
8BB\L	8ff#L 8dd#\	.
8F#\	8cc#\	.
8B\	8b 8f#\	.
8d#\	8ff# 8dd#\	.
8B\	8cc#\	.
8F#\J	8bJ 8f#\	.
=32	=32	=32
8BB\L	8ee#XL 8ddn\	.
8G#\	8cc#\	.
8B\	8b 8e#X\	.
8dn\	8ee# 8dd\	.
8B\	8cc#\	.
8G#\J	8bJ 8e#\	.
=33	=33	=33
8BB\L	8ff#L 8dd#\	.
8F#\	8cc#\	.
8B\	8b 8f#\	.
8d#\	8ff# 8dd#\	.
8B\	8cc#\	.
8F#\J	8bJ 8f#\	.
=34	=34	=34
8BB\L	8gg#L 8dd#\	.
8E#X\	8cc#\	.
8B\	8b 8g#\	.
8d#\	8gg# 8dd#\	.
8B\	8cc#\	.
8E#\J	8bJ 8g#\	.
=35	=35	=35
!	!	!LO:HP:b
8C#\L	8ff#L 8a#\	<
8F#\	8ggn 8b\	.
8A#\	8gg#X 8b#X\	.
8f#\	8aan 8cc#\	.
8A#\	8aa#X 8cc##X\	.
8F#\J	8bbJ 8dd#\	[[
!!LO:PB:g=original
=36	=36	=36
!	!	!LO:HP:b
8C#\L	8cccnL 8een\	<
8E#X\	8ccc#X 8ee#X\	.
8B\	8dddn 8ff#\	.
8e#X\	8ddd#X 8ff##X\	.
8B\	8eee 8gg#\	.
8E#\J	8fffnJ 8aan\	.
=37	=37	=37
8FF#\L	4fff#X 4aa#X\	[
8C#\	.	.
8F#\	4r	.
8An\	.	.
8A#X\	4r	.
8c#\J	.	.
=38	=38	=38
!	!	!LO:DY:b
4f#\	8ff#\L	p
.	8ee#X\	.
4r	8ff#\	.
.	8ee#\	.
4r	8ff#\	.
.	8ee#\J	.
=39	=39	=39
8BB\L	8ff#L 8dd#\	.
8F#\	8cc#\	.
8B\	8b 8f#\	.
8d#\	8ff# 8dd#\	.
8B\	8cc#\	.
8F#\J	8bJ 8f#\	.
=40	=40	=40
8BB\L	8ee#XL 8ddn\	.
8G#\	8cc#\	.
8B\	8b 8e#X\	.
8dn\	8ee# 8dd\	.
8B\	8cc#\	.
8G#\J	8bJ 8e#\	.
=41	=41	=41
8BB\L	8ff#L 8dd#X\	.
8F#\	8cc#\	.
8B\	8b 8f#\	.
8d#\	8ff# 8dd#\	.
8B\	8cc#\	.
8F#\J	8bJ 8f#\	.
=42	=42	=42
8BB\L	8gg#L 8dd#\	.
8E#X\	8cc#\	.
8B\	8b 8g#\	.
8d#\	8gg# 8dd#\	.
8B\	8cc#\	.
8E#\J	8bJ 8g#\	.
!!LO:LB:g=original
=43	=43	=43
!	!	!LO:HP:b
8AA#\L	8ff#L 8a#\	<
8F#\	8ee#X 8g##X\	.
8A#\	8ff# 8a#\	.
8d#\	8ggn 8b\	.
8A#\	8gg#X 8b#X\	.
8F#\J	8aanJ 8cc#\	[
=44	=44	=44
!	!	!LO:HP:b
8AA#\L	8aa#XL 8cc##X\	>
8G#\	8bb 8dd#\	.
8A#\	8aa# 8cc##\	.
!	!LO:N:n=2:acc=n#	!
8c##X\	8aan 8cc#X\	.
8A#\	8gg# 8b#X\	.
8G#\J	8ggnJ 8bn\	]
=45	=45	=45
8D#\L	8ff#L 8a#\	.
8F#\	8ee#X 8g##X\	.
8A#\	8ff# 8a#\	.
8d#\	8ee# 8g##\	.
8A#\	8ff# 8a#\	.
8F#\J	8ee#J 8g##\	.
=46	=46	=46
8C#\L	8ff#L 8a#\	.
8F#\	8ee#X 8g##X\	.
8A#\	8ff# 8a#\	.
8e\	8ee#X 8g##X\	.
8A#\	8ff# 8a#\	.
8F#\J	8ee#J 8g##\	.
=47	=47	=47
8BB\L	8ff#L 8dd#\	.
8F#\	8cc#\	.
8B\	8b 8f#\	.
8d#\	8ff# 8dd#\	.
8B\	8cc#\	.
8F#\J	8bJ 8f#\	.
=48	=48	=48
8BB\L	8ee#XL 8ddn\	.
8G#\	8cc#\	.
8B\	8b 8e#X\	.
8dn\	8ee# 8dd\	.
8B\	8cc#\	.
8G#\J	8bJ 8e#\	.
=49	=49	=49
8BB\L	8ff#L 8dd#\	.
8F#\	8cc#\	.
8B\	8b 8f#\	.
8d#\	8ff# 8dd#\	.
8B\	8cc#\	.
8F#\J	8bJ 8f#\	.
!!LO:LB:g=original
=50	=50	=50
8E#X\L	8bbL 8ee#X\	.
8B\	8cc#\	.
8dn\	8ddn 8b\	.
8g#\	8bb 8ee#\	.
8d\	8cc#\	.
8B\J	8ddJ 8b\	.
=51	=51	=51
8F#\L	8bbL 8dd#\	<
8B\	8cccn 8ee\	.
8d#\	8ccc#X 8ee#X\	.
8b\	8dddn 8ff#\	.
8d#\	8ddd#X 8ff##X\	.
8B\J	8eeeJ 8gg#\	.
=52	=52	=52
8F#\L	8fffnL 8aan\	.
8A#\	8fff#X 8aa#X\	.
8en\	8gggn 8bb\	.
*	*8va	*
8a#\	8ggg##X 8bb#X\	.
8e\	8aaan 8ccc#\	.
8A#\J	8aaa#XJ 8ccc##X\	.
=53	=53	=53
8BB\L	4bbb 4ddd#\	.
!	!LO:TX:i:a:t=loco	!
8F#\	.	[[
*	*X8va	*
8B\	4r	.
8c##X\	.	.
8d#\	4r	.
8f#\J	.	.
=54	=54	=54
4b\	4d#/	.
!	!	!LO:DY:b:t=p.:rj
4r	4f#/	p
4r	4g#/	.
=55	=55	=55
!	!LO:TX:b:t=ø	!
8FF#\L	[>2.a# 2.f# 2.c#/	.
8C#\	.	.
!LO:TX:a:t=mezzo forte e lentamente:dur=10q:ext=s:problem	!	!
8G#\	.	.
8F#\	.	.
8A#\	.	.
8F#\J	.	.
=56	=56	=56
*2\right	*	*
2.c#\	8a#/L]	.
.	8f#/	.
.	8g#M</	.
.	8f#/	.
.	8cc#/	.
.	8f#/J	.
!!LO:LB:g=original
=57	=57	=57
*	*2\right	*
8FF#/L	[>2.a# 2.f# 2.c#\	.
8C#/	.	.
8G#/	.	.
8F#/	.	.
8A#/	.	.
8F#/J	.	.
=58	=58	=58
2.c#/	8a#/L]	.
.	8f#/	.
.	8g#M</	.
.	8f#/	.
.	8cc#/	.
.	8f#/J	.
=59	=59	=59
4B: 4F#: 4FF#:/	4g# 4e#X\	.
*clefG2	*	*
8g#/L	8ggg#L 8eee#X\	>
8a#/J	8eeen\	.
4b/	8eee 8ddd#X\	.
.	8dddn\J	.
=60	=60	=60
8e#X/L	8eee#XL 8ccc#\	.
8f#/J	8bb#X\	.
4g#/	8ccc# 8bbn\	.
.	8aa#\	.
8c#/L	8ccc# 8gg#\	.
8d#/J	8ff#\J	.
=61	=61	=61
4e#X/	8gg#L 8ee#X\	.
.	8een\	.
*clefF4	*	*
8G#\L	8ee#X 8dd#\	.
8A#\J	8cc##X\	.
!	!LO:N:n=2:acc=n#	!
4B\	8ee# 8cc#X\	.
.	8b#X\J	.
=62	=62	=62
8E#X\L	8cc#L 8bn/	.
8F#\	8a#/	.
8G#\	8cc# 8g#/	.
8A#\	8f#/	.
8B\	8cc# 8e#X/	.
8C#\J	8c#/J	]]
=63	=63	=63
!	!	!LO:DY:b
8FF#\L	[>2.a# 2.f# 2.c#/	p
8C#\	.	.
8G#\	.	.
8F#\	.	.
8A#\	.	.
8F#\J	.	.
!!LO:LB:g=original
=64	=64	=64
2.c#\	8a#/L]	.
.	8f#/	.
.	8g#M</	.
.	8f#/	.
.	8cc#/	.
.	8f#/J	.
=65	=65	=65
8FF#\L	[>2.a# 2.f# 2.dn/	.
8Dn\	.	.
8G#\	.	.
8F#\	.	.
!	!	!LO:HP:b
8A#\	.	<
8F#\J	.	.
=66	=66	=66
2.dn\	8a#/L]	.
.	8f#/	.
.	8g#M</	.
.	8f#/	.
.	8ddn/	.
.	8f#/J	.
=67	=67	=67
4B#X: 4F#: 4D#: 4GG#:\	4dd#: 4g#: 4f#: 4d#:\	[
*clefG2	*	*
!	!	!LO:HP:b
8dd#\L	8aaa#L 8fff#\	>
8ee#X\J	8eee#X\	.
4ff#\	8fff# 8ddd#\	.
.	8ccc#\J	.
=68	=68	=68
8b#X\L	8ddd#L 8bb#X\	.
8cc#\J	8aa#\	.
4dd#\	8bb# 8aan\	.
.	8gg#\	.
8g#\L	8bb# 8ff##X\	.
!	!LO:N:n=2:acc=n#	!
8a#\J	8ff#X\J	.
=69	=69	=69
4bn 4c#\	8bbL 8ee#X\	.
.	8een\	.
8e#X/L	8gg# 8dd#\	.
8f#/J	8ddn\	.
4g#/	8ee#X 8cc#\	.
.	8b#X\J	.
*clefF4	*	*
=70	=70	=70
8G#\L	8cc#L 8bn\	.
8A#\J	8a#\	.
4B\	8cc# 8g#\	.
.	8f#\	.
4C#\	8cc# 8e#X\	.
.	8c#\J	]]
!!LO:LB:g=original
=71	=71	=71
8FF#\L	[>2.a# 2.f# 2.c#/	.
8C#\	.	.
8G#\	.	.
8F#\	.	.
8A#\	.	.
8F#\J	.	.
=72	=72	=72
2.c#\	8a#/L]	.
.	8f#/	.
.	8g#M</	.
.	8f#/	.
.	8cc#/	.
.	8f#/J	.
=73	=73	=73
8FF#\L	[>2.a# 2.f# 2.c#/	.
8C#\	.	.
8G#\	.	.
8F#\	.	.
8A#\	.	.
8F#\J	.	.
=74	=74	=74
2.c#\	8a#/L]	.
.	8f#/	.
.	8g#/	.
.	8f#/	.
.	8cc#/	.
.	8f#/J	.
=75	=75	=75
4A#: 4C#: 4FF#:\	4a#: 4f#: 4e:\	.
*clefG2	*	*
*	*8va	*
!	!	!LO:HP:b
8cc#\L	8cccc#L 8aaa#\	>
8dd#\J	8aaan\	.
4ee\	8aaa#X 8ggg#\	.
.	8gggn\J	.
*	*X8va	*
=76	=76	=76
8a#\L	8aaa#L 8fff#\	.
8b\J	8eee#X\	.
4cc#\	8fff# 8eeen\	.
.	8ddd#\	.
8f#/L	8fff# 8ccc#\	.
8g#/J	8bb\J	.
=77	=77	=77
4a#/	8ccc#L 8aa#\	.
.	8aan\	.
8c#/L	8aa#X 8gg#\	.
8d#/J	8ggn\	.
4e/	8aa# 8ff#\	.
.	8ee#X\J	]]
!LO:CL:ed	!	!
*clefF4	*	*
!!LO:PB:g=original
=78	=78	=78
8A#\L	8ff#L 8ee\	.
8B\	8dd#\J	.
8c#\	8ff#L 8cc#\	.
8d#\	8b\J	.
8e\	8ff#L 8a#\	.
8F#\J	8f#\J	.
=79	=79	=79
*	*2\left	*
!	!	!LO:DY:b:t=pp.
8BB\L	[>2.dd# 2.b 2.f#\	pp
8F#\	.	.
8c#\	.	.
8B\	.	.
8d#\	.	.
8B\J	.	.
=80	=80	=80
*2\left	*	*
2.f#\	8dd#\L]	.
.	8b\	.
.	8cc#M>\	.
.	8b\	.
.	8ff#\	.
.	8b\J	.
=81	=81	=81
8BB\L	[>2.ddn 2.b 2.f#\	.
8F#\	.	.
8c#\	.	.
8B\	.	.
8dn\	.	.
8B\J	.	.
=82	=82	=82
2.f#\	8dd\L]	.
.	8b\	.
!	!LO:TX:a:t=P:problem:mordent w źródle bez krzyżyka	!
.	8cc#M\	.
.	8b\	.
.	8ff#\	.
.	8b\J	.
=83	=83	=83
4f# 4A# 4C#\	4cc# 4a#\	.
*clefG2	*	*
*	*8va	*
8a#/L	8cccc#L 8aaa#\	.
!	!	!LO:DY:b:t=pp.
8b/J	8ggg#\J	pp
4cc#/	8aaa#L 8fff#\	.
.	8eee#X\J	.
*	*X8va	*
=84	=84	=84
!	!LO:TX:i:a:t=loco	!
8f#/L	8fff#L 8ddd#\	.
8g#/J	8dddn\J	.
4a#/	8fff#L 8ccc#\	.
.	8aa#\J	.
8A#/L	8ccc#L 8gg#\	.
8B/J	8ff#\J	.
*clefF4	*	*
=85	=85	=85
8C#\L	8bbL 8ee#X\	.
8c#\J	8dd#\J	.
8dn\L	8gg#L 8ddn\	.
8d#X\J	8cc#\J	.
8e\L	8ee#XL 8b#X\	.
8e#X\J	8bn\J	.
!!LO:LB:g=original
=86	=86	=86
4f# 4c# 4F#\	4ff# 4a#\	.
4ryy	4f#\	.
4f#\	4r	.
=87	=87	=87
8BB\L	8ff#L 8dd#\	.
8F#\	8cc#\	.
8B\	8b 8f#\	.
8d#\	8ff# 8dd#\	.
8B\	8cc#\	.
8F#\J	8bJ 8f#\	.
=88	=88	=88
!	!	!LO:HP:b
8BB\L	8ee#XL 8ddn\	<
8G#\	8cc#\	.
8B\	8b 8e#X\	.
8dn\	8ee# 8dd\	.
8B\	8cc#\	.
8G#\J	8bJ 8e#\	.
=89	=89	=89
8BB\L	8ff#L 8dd#X\	.
8F#\	8cc#\	.
8B\	8b 8f#\	.
8d#X\	8ff# 8dd#\	.
8B\	8cc#\	.
8F#\J	8bJ 8f#\	.
=90	=90	=90
8BB\L	8gg#L 8dd#\	.
8E#X\	8cc#\	.
8B\	8b 8g#\	.
8d#\	8gg# 8dd#\	[
8B\	8cc#\	.
8E#\J	8bJ 8g#\	.
=91	=91	=91
!	!	!LO:HP:b
8BB\L	8ff#L 8a#\	<
8F#\	8ee#X 8g##X\	.
8A#\	8ff# 8a#\	.
8d#\	8ggn 8b\	.
8A#\	8gg#X 8b#X\	.
8F#\J	8aanJ 8cc#\	[[
=92	=92	=92
!	!	!LO:HP:b
8AA#\L	8aa#XL 8cc##X\	>
8G#\	8bb 8dd#\	.
8A#\	8aa# 8cc##\	.
!	!LO:N:n=2:acc=n#	!
8c##X\	8aan 8cc#X\	.
8A#\	8gg# 8b#X\	.
8G#\J	8ggnJ 8bn\	]
!!LO:LB:g=original
=93	=93	=93
8D#\L	8ff#L 8a#\	.
!	!	!LO:DY:b:t=p.
8F#\	8ee#X 8g##X\	p
8A#\	8ff# 8a#\	.
8d#\	8ee# 8g##\	.
8A#\	8ff# 8a#\	.
8F#\J	8ee#J 8g##\	.
=94	=94	=94
8C#\L	8ff#L 8a#\	.
8F#\	8ee#X 8g##X\	.
8A#\	8ff# 8a#\	.
8e\	8ee# 8g##\	.
8A#\	8ff# 8a#\	.
8F#\J	8ee#J 8g##\	.
=95	=95	=95
8BB\L	8ff#L 8dd#\	.
!	!	!LO:HP:b
8F#\	8cc#\	<
8B\	8b 8f#\	.
8d#\	8ff# 8dd#\	.
8B\	8cc#\	.
8F#\J	8bJ 8f#\	.
=96	=96	=96
8BB\L	8ee#XL 8ddn\	.
8G#\	8cc#\	.
8B\	8b 8e#X\	.
8dn\	8ee# 8dd\	.
8B\	8cc#\	[
8G#\J	8bJ 8e#\	.
=97	=97	=97
8BB\L	4ff# 4dd#\	.
8F#\	.	.
!	!	!LO:DY:b:t=f.:rj
8B\	8dd#L 8f#\	f
8d#\	8ff#J 8b\	.
8B\	4bb 4dd#\	.
8F#\J	.	.
=98	=98	=98
*	*8va	*
!	!	!LO:DY:b:t=p.
8BB\L	4fff# 4ddd#\	p
8F#\	.	.
8B\	8ddd#L 8ff#\	.
8d#\	8fff#J 8bb\	.
8B\	4bbb 4ddd#\	.
8F#\J	.	.
*	*X8va	*
=99	=99	=99
!	!	!LO:HP:b
4EE/	8bbL 8gg#\	<
.	8ff#\	.
8e\L	8ee 8b\	.
8g#\	8bb 8gg#\	.
8e\	8ff#\	.
8B\J	8eeJ 8b\	[
!!LO:LB:g=original
=100	=100	=100
!	!	!LO:HP:b
8E\L	8aa#L 8ggn\	<
8c#\	8ff#\	.
8e\	8ee 8a#\	.
8gn\	8aa# 8gg\	.
8e\	8ff#\	.
8c#\J	8eeJ 8a#\	[
=101	=101	=101
!	!	!LO:DY:b:t=f.
8E\L	4bb 4gg#X\	f
8B\	.	.
8e\	8gg#L 8b\	.
8g#\	8bbJ 8ee\	.
8e\	4eee 4gg#\	.
8B\J	.	.
=102	=102	=102
*	*8va	*
!	!	!LO:DY:b:t=p.
8E\L	4bbb 4ggg#\	p
8B\	.	.
8e\	8ggg#L 8bb\	.
8g#\	8bbbJ 8eee\	.
8e\	4eeee 4ggg#\	.
8B\J	.	.
*	*X8va	*
=103	=103	=103
!	!	!LO:DY:b:t=ff.
4EE/	8ccc#L 8ee\	ff
.	8ddd# 8ff#\	.
4a# 4gn 4e 4c# 4A#\	8eee 8ggn\	.
.	8eee#X 8gg#X\	.
4a# 4g 4e 4c# 4A#\	8fff# 8aan\	.
.	8fff##XJ 8aa#X\	.
=104	=104	=104
4b 4an 4d# 4B\	8ggg#L 8bb\	.
.	8fff# 8aan\	.
4r	8eee 8gg#\	.
.	8ddd# 8ff#\	.
4r	8ccc# 8ee\	.
.	8bbJ 8dd#\	.
=105	=105	=105
!	!	!LO:DY:b:t=f.
8E\L	4bb 4gg#\	f
8B\	.	.
8e\	8gg#L 8b\	.
8g#\	8bbJ 8ee\	.
8e\	4eee 4gg#\	.
8B\J	.	.
=106	=106	=106
*	*8va	*
!	!	!LO:DY:b:t=p.
8E\L	4bbb 4ggg#\	p
8B\	.	.
8e\	8ggg#L 8bb\	.
8g#\	8bbbJ 8eee\	.
8e\	4eeee 4ggg#\	.
8B\J	.	.
*	*X8va	*
=107	=107	=107
!	!	!LO:DY:b
4EE/	8ccc#L 8ee\	ff
.	8ddd# 8ff#\	.
4a# 4gn 4e 4c# 4A#\	8eee 8ggn\	.
.	8eee#X 8gg#X\	.
4a# 4g 4e 4c# 4A#\	8fff# 8aan\	.
.	8fff##XJ 8aa#X\	.
!!LO:LB:g=original
=108	=108	=108
4b 4an 4d# 4B\	8ggg#L 8bb\	.
.	8fff# 8aan\	.
4r	8eee 8gg#\	.
.	8ddd# 8ff#\	.
4r	8ccc# 8ee\	.
.	8bbJ 8dd#\	.
=109	=109	=109
!	!	!LO:DY:b:t=p.
8E\L	4bb 4gg#\	p
8B\	.	.
8e\	8gg#L 8b\	.
8g#\	8bbJ 8ee\	.
8e\	4eee 4gg#\	.
8B\J	.	.
=110	=110	=110
*	*8va	*
!	!	!LO:DY:b:t=f.
8E\L	4bbb 4ggg#\	f
8B\	.	.
8e\	8ggg#L 8bb\	.
8g#\	8bbbJ 8eee\	.
8e\	4eeee 4ggg#\	.
8B\J	.	.
*	*X8va	*
=111	=111	=111
4BBB/	8r	.
.	8r	.
!	!LO:TX:i:a:t=rubato.	!LO:HP:b
4BB/	8eL 8G#/	<
.	8e 8An/	.
4G#/	8e 8A#X/	.
.	8eJ 8B/	[[
=112	=112	=112
2An/	8d#L 8cn/	.
!	!	!LO:DY:b:t=p.
.	8d# 8c#X/	p
.	8d# 8cn/	.
.	8d# 8B/	.
4BB/	8d# 8A#/	.
.	8d#J 8An/	.
=113	=113	=113
4BBB/	4e 4G#/	.
!	!	!LO:HP:b
4B\	8eeL 8g#\	<
.	8ee 8an\	.
4g#\	8ee 8a#X\	.
.	8eeJ 8b\	[
=114	=114	=114
2an\	8dd#L 8ccn\	.
!	!	!LO:DY:b:t=p.
.	8dd# 8cc#X\	p
.	8dd# 8ccn\	.
.	8dd# 8b\	.
4B\	8dd# 8a#\	.
.	8dd#J 8an\	.
!!LO:LB:g=original
=115	=115	=115
4BB\	4ee 4g#\	.
*clefG2	*	*
*	*8va	*
4gg#\	8eeeL 8bb\	.
!	!LO:TX:i:b:t=con bravura	!
.	8bbb 8ggg#\	.
4b\	8fff#\	.
.	8eee 8bb\J	.
*	*X8va	*
=116	=116	=116
4B/	8bbL 8gg#\	.
.	8ff#\	.
4g#/	8ee 8b\	.
.	8bb 8gg#\	.
4B/	8ff#\	.
.	8eeJ 8b\	.
*clefF4	*	*
=117	=117	=117
4BB/	8bL 8g#\	.
.	8f#\	.
4G#/	8e 8B\	.
.	8b 8g#\	.
4BB/	8f#\	.
.	8eJ 8B\	.
=118	=118	=118
4BBB\	8B<L 8G#</	.
.	8F#</	.
4GG#\	8E< 8BB</	.
.	8B< 8G#</	.
4BBB\	8F#</	.
.	8E<J 8BB</	.
=119	=119	=119
!	!	!LO:DY:b:t=ff.
8BBB\L	4B< 4An< 4D#</	ff
8FF#\	.	.
8D#\	8BB</L	.
!LO:TX:b:t=fis	!	!
8FF#\	8F#</	.
!LO:TX:b:t=dis	!	!
8D#\	8B</	.
!LO:TX:b:t=h	!	!
8B\J	8f#</J	.
=120	=120	=120
8BB\L	8b\L	.
8F#\	8f#\	.
8d#\	8B\	.
8F#\	8f#\	.
8d#\	8b\	.
8b\J	8ff#\J	.
*clefG2	*	*
=121	=121	=121
8B/L	8bb\L	.
8f#/	8ff#\	.
8dd#/	8b\	.
8f#/	8ff#\	.
8dd#/	8bb\	.
8bb/J	8fff#\J	.
=122	=122	=122
*	*8va	*
8b\L	8bbb\L	.
8ff#\	8fff#\	.
8ddd#\	8bb\	.
8ff#\	8fff#\	.
8ddd#\J	8bbb\	.
8r	8ffff#\J	.
*	*X8va	*
!!LO:PB:g=original
=123	=123	=123
*8va	*8va	*
8aaan\L	8ffff#\L	.
8ggg#\	8eeee\	.
8fff#\	8dddd#\	.
8eee\	8cccc#\	.
8ddd#\	8bbb\	.
8ccc#\J	8aaa#X\J	.
*X8va	*X8va	*
=124	=124	=124
8cccn\L	8aaan\L	.
8bb\	8ggg#\	.
8aan\	8fff#\	.
8gg#\	8eee\	.
8ff#\	8ddd#\	.
8ee\J	8ccc#\J	.
=125	=125	=125
8dd#\L	8bb\L	.
8cc#\	8aa#X\	.
8ccn\	8aan\	.
8b\	8gg#\	.
8an\	8ff#\	.
8g#\J	8ee\J	.
=126	=126	=126
8f#/L	8dd#\L	.
8e/	8cc#\	.
8d#/	8b\	.
8c#/	8an\	.
8B/	8g#\	.
8An/J	8f#\J	.
=127	=127	=127
!	!LO:TX:a:t=eis	!
8G#/L	8fn\L	.
!	!	!LO:DY:b:t=ff.:rj
8An/	8f#X\	ff
8B/	8g#\	.
8cn/	8an\	.
8d#/	8b\	.
8e/J	8ccn\J	.
*clefF4	*	*
=128	=128	=128
4r	2.ccn 2.e 2.An/	.
4F# 4BB\	.	.
4F# 4BB\	.	.
=129	=129	=129
4F# 4BB\	4b 4d# 4A#\	.
8d#L 8F#\	8dd#L 8f#\	.
8f#J 8B\	8ff#J 8b\	.
4b 4d#\	4bb 4dd#\	.
=130	=130	=130
4BB\	4r	.
8d#L 8F#\	8dd#L 8f#\	.
8f#J 8B\	8ff#J 8b\	.
4b 4d#\	4bb 4dd#\	.
*clefG2	*	*
!!LO:LB:g=original
=131	=131	=131
!	!LO:TX:a:t=eis.	!
8g#/L	8ffn\L	.
!	!	!LO:DY:b:t=pp.
8an/	8ff#X\	pp
8b/	8gg#\	.
8ccn/	8aan\	.
8dd#/	8bb\	.
8ee/J	8cccn\J	.
=132	=132	=132
4r	2.cccn 2.ee 2.an\	.
4f# 4B/	.	.
4f# 4B/	.	.
=133	=133	=133
4f# 4B/	4bb 4dd# 4an\	.
8dd#\L	8ddd#\L	.
8ff#\J	8fff#\J	.
4bb\	4bbb\	.
=134	=134	=134
!	!LO:TX:b:t=rit. _:dur=3q:ext=ud:problem:text with extention lines	!
8ff#\L	8ddd#\L	.
8ee\	8ccc#\J	.
8dd#\	8bb\L	.
8cc#\	8aany\J	.
8b\	8gg#\L	.
8any\J	8ff#\J	.
*clefF4	*	*
*kcancel	*kcancel	*
=135||	=135||	=135||
*k[f#c#g#d#]	*k[f#c#g#d#]	*
!	!	!LO:DY:b:t=pp.
4E\	4ee 4g#\	pp
4b 4g# 4e 4B\	8gg#L 8b\	.
.	8bbJ 8ee\	.
4b 4g# 4e 4B\	4eee 4gg#\	.
=136	=136	=136
*2\right	*	*
2.a#X 2.gn 2.e 2.A#X\	8ccc#L 8ee\	.
.	8ddd# 8ff#\	.
.	8eee 8ggn\	.
.	8eee#X 8gg#X\	.
.	8fff# 8aa\	.
.	8fff##XJ 8aa#X\	.
=137	=137	=137
4E\	8ggg#L 8bb\	.
.	8fff# 8aa\	.
4b 4g# 4e 4B\	8eee 8gg#\	.
.	8ddd# 8ff#\	.
4b 4g# 4e 4B\	8ccc# 8ee\	.
.	8bbJ 8dd#\	.
!!LO:LB:g=original
=138	=138	=138
*2\left	*	*
2.cc# 2.g#X 2.e 2.c#\	8aa#XL 8ee\	.
.	8eee 8gg#\	.
.	8eee 8gg#\	.
.	8aa#J 8ee\	.
.	4eee 4gg#\	.
=139	=139	=139
4DD#/	4ddd# 4gg# 4b\	.
!	!	!LO:DY:b:t=mf.
4D#/	8g#L 8B/	mf
.	8g# 8cn/	.
4B/	8g# 8c#X/	.
!	!LO:TX:b:t=ritenuto _:dur=3qe:ext=ud:problem:text with extention lines	!
.	8g#J 8c##X/	.
=140	=140	=140
4c#/	8f##XL 8d#/	.
.	8f## 8e/	.
4D#/	8f## 8d#/	.
.	8f## 8c##X/	.
4DD#/	8f## 8c#X/	.
.	8f##J 8cn/	.
=141	=141	=141
4GG#/	4g# 4B/	.
4b 4g# 4d# 4B\	8r	.
.	8ggg# 8bb\L	.
4b 4g# 4d# 4B\	8fff# 8aa\	.
.	8eeeJ 8gg#\	.
=142	=142	=142
*2\right	*	*
2.b 2.a 2.f# 2.d# 2.B\	8ddd#L 8ff#\	.
.	8ccc# 8ee\	.
.	8bb 8dd#\	.
.	8aa 8cc#\	.
.	8gg# 8b\	.
.	8ff#J 8a\	.
=143	=143	=143
!	!	!LO:DY:b:t=f.
4EE/	4ee 4g#\	f
4b 4g# 4e 4B\	8gg#L 8b\	.
.	8bbJ 8ee\	.
4b 4g# 4e 4B\	4eee 4gg#\	.
=144	=144	=144
2.a#X 2.gn 2.e 2.A#X\	8ccc#L 8ee\	.
.	8ddd# 8ff#\	.
!	!	!LO:HP:b
.	8eee 8ggn\	<
.	8eee#X 8gg#X\	.
.	8fff# 8aa\	.
.	8fff##XJ 8aa#X\	[[
!!LO:LB:g=original
=145	=145	=145
!	!	!LO:HP:b
4EE/	8ggg#L 8bb\	>
.	8fff# 8aa\	.
*clefG2	*	*
4b 4g# 4e 4B/	8eee 8gg#\	.
.	8ddd# 8ff#\	.
4b 4g# 4e 4B/	8ccc# 8ee\	]
.	8bbJ 8dd#\	.
=146	=146	=146
2cc# 2a#X 2gn 2e 2c#/	8aa#XL 8ee\	.
.	8eeeJ 8ggn\	.
.	4eee 4gg\	.
*clefF4	*	*
4CC#/	4r	.
=147	=147	=147
4BBB/	4eee 4gg# 4b\	.
!	!	!LO:DY:p:t=p.:rj
4BB/	8eL 8G#/	p
.	8e 8A/	.
4G#/	8e 8A#X/	.
.	8eJ 8B/	.
=148	=148	=148
4A/	8d#L 8cn/	.
.	8d# 8c#X/	.
4BB/	8d# 8cn/	.
.	8d# 8B/	.
4BBB/	8d# 8A#X/	.
.	8d#J 8An/	.
=149	=149	=149
8EE\L	4e 4G#/	.
8BB\	.	.
!	!LO:TX:i:b:t=rapido.	!
8G#\	8E/L	.
8BB\	8B/	.
8G#\	8e/	.
8e\J	8b/J	.
*clefG2	*	*
=150	=150	=150
4gg#\	4eee 4bb 4ee\	.
4r	4r	.
4r	4r	.
*clefF4	*	*
=151||	=151||	=151||
4C# 4CC#/	4eee 4ccc# 4gg# 4ee\	.
!	!LO:TX:i:a:t=cappriciosam	!
4c# 4G#\	8cc#L 8e\	.
.	8cc# 8fn\	.
4c# 4G#\	8cc# 8f#X\	.
.	8cc#J 8f##X\	.
!!LO:LB:g=original
=152	=152	=152
*2\left	*	*
!	!	!LO:DY:b:t=p.
2.B#X 2.G# 2.D#\	8b#XL 8g#/	p
.	8b# 8a/	.
.	8b# 8g#/	.
.	8b# 8f##X/	.
!	!LO:N:n=2:acc=n#	!
.	8b# 8f#X/	.
.	8b#J 8fn/	.
=153	=153	=153
4EE\	4cc# 4e/	.
4e 4c# 4A 4E\	8r	.
!	!	!LO:DY:b:t=f.
.	8ccc#L 8ee\	f
4e 4c# 4A 4E\	8bb 8ddn\	.
.	8aaJ 8cc#\	.
=154	=154	=154
*2\right	*	*
2.e 2.dn 2.G# 2.E\	8gg#L 8b\	.
.	8ff# 8a\	.
.	8ee 8g#\	.
.	8ddn 8f#\	.
.	8cc# 8e\	.
.	8bJ 8dn\	.
=155	=155	=155
4FF# 4FFF#/	4aa 4ff# 4cc# 4a\	.
4F# 4C#\	8f#L 8A/	.
!	!	!LO:DY:b:t=p.
.	8f# 8A#X/	p
4F# 4C#\	8f# 8B/	.
.	8f#J 8cn/	.
=156	=156	=156
2.E#X 2.C# 2.GG#/	8e#XL 8c#/	.
.	8e# 8dn/	.
.	8e# 8c#/	.
.	8e# 8cn/	.
.	8e# 8B/	.
.	8e#J 8A#X/	.
=157	=157	=157
4AAA/	4f# 4An/	.
*clefG2	*	*
4a 4f# 4dn 4A/	8r	.
.	8fff#L 8aan\	.
4a 4f# 4d 4A/	8eee 8ggn\	.
!	!	!LO:DY:b:t=f.
.	8dddnJ 8ff#\	f
=158	=158	=158
2.a 2.gn 2.c# 2.A/	8ccc#L 8ee\	.
.	8bb 8ddn\	.
.	8aa 8cc#\	.
.	8ggn 8b\	.
.	8ff# 8a\	.
.	8eeJ 8gn\	.
!LO:CL:ed	!	!
*clefF4	*	*
!!LO:LB:g=original
=159	=159	=159
*8ba	*	*
!LO:TX:b:t=con ottavi. _:dur=24q:ext=ud:problem:text with extention lines	!	!
8AAA/L	4dd# 4ccn 4f# 4cn\	.
8AAA#X/	.	.
!	!	!LO:DY:b:t=f.:rj
8BBB/	8A/L	f
8CCn/	8A/J	.
!	!LO:TX:b:i:t=é	!
8CC#X/	4A/	.
8DDn/J	.	.
=160	=160	=160
!	!LO:TX:b:t=crescendo _:problem:dynamics with extention lines	!LO:HP:b:i:t=crescendo
4DD#X/	8dd#L 8ccn\	<
.	8b\	.
4AAA/	8a 8d#\	.
.	8dd# 8cc\	.
4DD#/	8b\	.
.	8aJ 8d#\	.
=161	=161	=161
8AAA/L	4ee 4cc# 4gn 4c#\	.
8BBB/	.	.
8CCn/	8A/L	.
8CC#X/	8A/J	.
8DDn/	4A/	.
8DD#X/J	.	.
=162	=162	=162
4EE/	8eeL 8cc#\	.
.	8b\	.
4AAA/	8a 8e\	.
.	8ee 8cc#\	.
4EE/	8b\	.
.	8aJ 8e\	.
=163	=163	=163
8AAA#X/L	4ee 4cc# 4gn 4c#\	.
8BBB/	.	.
8CCn/	8A#X/L	.
8CC#X/	8A#/J	.
8DDn/	4A#/	.
8DD#X/J	.	.
=164	=164	=164
4EE/	8eeL 8cc#\	.
.	8b#X\	.
4AAA#X/	8a#X 8e\	.
.	8ee 8cc#\	.
4EE/	8b#\	.
.	8a#J 8e\	.
=165	=165	=165
8AAA#X/L	4ee#X 4cc##X 4g# 4c##X\	.
8BBB#X/	.	.
8CC#/	8A#X/L	.
8DDn/	8A#/J	.
8DD#X/	4A#/	.
8EE/J	.	.
=166	=166	=166
4EE#X/	8ee#XL 8cc##X\	.
.	8b#X\	.
4AAA#X/	8a#X 8e#X\	.
.	8ee# 8cc##\	[
4EE#/	8b#\	.
.	8a#J 8e#\	.
*X8ba	*	*
!!LO:PB:g=original
=167	=167	=167
!	!	!LO:DY:b:t=ff.
4BB 4BBB/	4ee 4ddn 4g# 4dn\	ff
8BBL 8BBB/	8B/L	.
8Cn 8CCn/	8B/J	.
8C#X 8CC#X/	4B/	.
8DnJ 8DDn/	.	.
=168	=168	=168
4EE#X 4EEE#X/	4B/	.
4dn 4G# 4BB\	8ddnL 8e#X\	.
.	8ee#XJ 8b\	.
4d 4G# 4BB\	4bb 4dd\	.
=169	=169	=169
4BB 4BBB/	4ff# 4dd# 4a 4d#X\	.
8BBL 8BBB/	8B/L	.
8C# 8CC#/	8B/J	.
8Dn 8DDn/	4B/	.
8D#XJ 8DD#X/	.	.
=170	=170	=170
4FF# 4FFF#/	4B/	.
4d# 4A 4BB\	8dd#L 8f#\	.
.	8ff#J 8b\	.
4d# 4A 4BB\	4bb 4dd#\	.
=171	=171	=171
8BBB\L	4ff# 4b 4a 4d#\	.
8FF#\	.	.
8D#\	8BB</L	.
!	!LO:TX:i:a:t=con bravura.	!
8FF#\	8F#</	.
8D#\	8B</	.
8B\J	8f#</J	.
=172	=172	=172
8BB\L	8b\L	.
8F#\	8f#\	.
8d#\	8B\	.
8F#\	8f#\	.
8d#\	8b\	.
8b\J	8ff#\J	.
*clefG2	*	*
=173	=173	=173
8B\L	8bb\L	.
8f#\	8ff#\	.
8dd#\	8b\	.
8f#\	8ff#\	.
8dd#\	8bb\	.
8bb\J	8fff#\J	.
!!LO:LB:g=original
=174	=174	=174
*	*8va	*
8b\L	8bbb\L	.
8ff#\	8fff#\	.
8ddd#\	8bb\	.
8ff#\	8fff#\	.
8ddd#\J	8bbb\	.
8r	8ffff#\J	.
=175	=175	=175
*8va	*	*
8aaa\L	8ffff#\L	.
8ggg#\	8eeee\	.
8fff#\	8dddd#\	.
8eee\	8cccc#\	.
8ddd#\	8bbb\	.
8ccc#\J	8aaa#X\J	.
*X8va	*	*
=176	=176	=176
8cccn\L	8aaan\L	.
8bb\	8ggg#\J	.
*	*X8va	*
8aa\	8fff#\L	.
8gg#\	8eee\	.
8ff#\	8ddd#\	.
8ee\J	8ccc#\J	.
=177	=177	=177
8dd#\L	8bb\L	.
8cc#\	8aa#X\	.
8ccn\	8aan\	.
8b\	8gg#\	.
8a\	8ff#\	.
8g#\J	8ee\J	.
=178	=178	=178
8f#/L	8dd#\L	.
8e/	8cc#\	.
8d#/	8b\	.
8c#/	8a\	.
8B/	8g#\	.
!	!LO:TX:i:b:t=sempre	!
8A/J	8f#\J	.
=179	=179	=179
8G#/L	8e#X\L	.
8A/	8f#\	.
8B/	8g#\	.
8cn/	8a\	.
!	!	!LO:DY:b:t=f.
8d#/	8b\	f
8e/J	8ccn\J	.
=180	=180	=180
*clefF4	*2\right	*
4r	2.ccn 2.e 2.A\	.
4F# 4BB\	.	.
4F# 4BB\	.	.
=181	=181	=181
4F# 4BB\	4b 4d# 4A\	.
8d#L 8F#\	8dd#L 8f#\	.
8f#J 8B\	8ff#J 8b\	.
4b 4d#\	4bb 4dd#\	.
=182	=182	=182
4BB\	4r	.
8d#L 8F#\	8dd#L 8f#\	.
8f#J 8B\	8ff#J 8b\	.
4b 4d#\	4bb 4dd#\	.
!!LO:LB:g=original
=183	=183	=183
*clefG2	*	*
!	!	!LO:DY:b:t=p.
8g#\L	8ee#X\L	p
8a\	8ff#\	.
8b\	8gg#\	.
8ccn\	8aa\	.
8dd#\	8bb\	.
8ee\J	8cccn\J	.
=184	=184	=184
4r	2.cccn 2.ee 2.a\	.
4f# 4B/	.	.
4f# 4B/	.	.
=185	=185	=185
4f# 4B/	4bb 4dd# 4a\	.
8dd#\L	8ddd#\L	.
8ff#\J	8fff#\J	.
4bb\	4bbb\	.
.	.	.
=186	=186	=186
!	!LO:TX:i:b:t=rit. poco.	!
8ff#\L	8ddd#\L	.
8ee\	8ccc#\	.
8dd#\	8bb\	.
8cc#\	8aa\	.
8b\	8gg#\	.
8a\J	8ff#\J	.
=187||	=187||	=187||
*clefF4	*	*
!	!	!LO:DY:b:t=pp.
4E\	4ee 4g#\	pp
*clefG2	*	*
4b 4g# 4e 4B/	8gg#L 8b\	.
.	8bbJ 8ee\	.
4b 4g# 4e 4B/	4eee 4gg#\	.
=188	=188	=188
2.a#X 2.gn 2.e 2.A#X/	8ccc#L 8ee\	.
.	8ddd# 8ff#\	.
.	8eee 8ggn\	.
.	8eee#X 8gg#X\	.
.	8fff# 8aa\	.
.	8fff##XJ 8aa#X\	.
*clefF4	*	*
=189	=189	=189
4E\	8ggg#L 8bb\	.
.	8fff# 8aa\	.
*clefG2	*	*
4b 4g# 4e 4B/	8eee 8gg#\	.
.	8ddd# 8ff#\	.
4b 4g# 4e 4B/	8ccc# 8ee\	.
.	8bbJ 8dd#\	.
=190	=190	=190
2.cc# 2.g# 2.e 2.c#/	8aa#XL 8ee\	.
.	8eee 8gg#\	.
.	8eee 8gg#\	.
.	8aa#J 8ee\	.
.	4eee 4gg#\	.
*clefF4	*	*
!!LO:LB:g=original
=191	=191	=191
4DD#/	4ddd# 4gg# 4b\	.
4D#\	8g#L 8B/	.
!	!LO:TX:b:t=rall. _:dur=3q:ext=ud:problem:text with extention lines	!
.	8g# 8cn/	.
4B\	8g# 8c#X/	.
.	8g#J 8c##X/	.
=192	=192	=192
4c#\	8f##XL 8d#/	.
.	8f## 8e/	.
4D#\	8f## 8d#/	.
.	8f## 8c##X/	.
!	!LO:N:n=2:acc=n#	!
4DD#/	8f## 8c#X/	.
.	8f##J 8cn/	.
=193	=193	=193
4GG#\	4g# 4B/	.
*clefG2	*	*
4b 4g# 4d# 4B/	8r	.
.	8ggg#L 8bb\	.
4b 4g# 4d# 4B/	8fff# 8aa\	.
.	8eeeJ 8gg#\	.
=194	=194	=194
2.b 2.a 2.f# 2.d# 2.B/	8ddd#L 8ff#\	.
.	8ccc# 8ee\	.
.	8bb 8dd#\	.
.	8aa 8cc#\	.
.	8gg# 8b\	.
.	8ff#J 8a\	.
*clefF4	*	*
=195	=195	=195
!	!	!LO:DY:b:t=f.
4EE/	4ee 4g#\	f
*clefG2	*	*
4b 4g# 4e 4B/	8gg#L 8b\	.
.	8bbJ 8ee\	.
4b 4g# 4e 4B/	4eee 4gg#\	.
=196	=196	=196
2.a#X 2.gn 2.e 2.A#X/	8ccc#L 8ee\	.
.	8ddd# 8ff#\	.
.	8eee 8ggn\	.
.	8eee#X 8gg#X\	.
.	8fff# 8aa\	.
.	8fff##XJ 8aa#X\	.
*clefF4	*	*
=197	=197	=197
4EE/	8ggg#L 8bb\	.
.	8fff# 8aa\	.
*clefG2	*	*
4b 4g# 4e 4B/	8eee 8gg#\	.
.	8ddd# 8ff#\	.
4b 4g# 4e 4B/	8ccc# 8ee\	.
.	8bbJ 8dd#\	.
=198	=198	=198
2cc# 2a#X 2gn 2e 2c#/	8aa#XL 8ee\	.
.	8eeeJ 8ggn\	.
*	*2\left	*
.	2eee 2gg\	.
*clefF4	*	*
4CC#/	.	.
!!LO:LB:g=original
=199	=199	=199
.	32qqaa\	.
2r	4ggn'>\	.
.	32qqgg\	.
.	4ff#'>\	.
.	32qqff#\	.
4r	4ee'>\	.
*clefG2	*	*
=200	=200	=200
!	!LO:TX:b:t=rall. _:dur=9q:ext=ud:problem:text with extention lines	!
2cc# 2a#X 2gn 2e 2c#/	8aa#XL 8ee\	.
.	8eeeJ 8ggn\	.
.	2eee 2gg\	.
*clefF4	*	*
4CC#/	.	.
=201	=201	=201
.	32qqaa\	.
2r	4ggn'>\	.
.	32qqgg\	.
.	4ff#'>\	.
.	32qqff#\	.
4r	4ee'>\	.
*clefG2	*	*
=202	=202	=202
2cc# 2a#X 2f# 2e 2c# 2A#X/	8aa#XL 8ee\	.
.	8eeeJ 8ff#\	.
.	2eee 2ff#;>\	.
*clefF4	*	*
4CC#;>/	.	.
=203||	=203||	=203||
*k[f#c#g#d#a#]	*k[f#c#g#d#a#]	*
!	!LO:TX:b:i:t=a tempo	!
.	32qqaa#\	.
2r	4gg#'>\	.
.	32qqgg#\	.
.	4ff#'>\	.
.	32qqff#\	.
4r	4ee#X'>\	.
*clefG2	*	*
=204	=204	=204
32qqa#/	32qqaa#\	.
!	!	!LO:DY:b:t=p.
4g#'</	4gg#'>\	p
32qqg#/	32qqgg#\	.
4f#'</	4ff#'>\	.
32qqf#/	32qqff#\	.
4e#X'</	4ee#X'>\	.
=205	=205	=205
!	!	!LO:HP:b
32qqg#/	32qqgg#\	<
4f#'</	4ff#'>\	.
.	32qqgg#\	.
4cc# 4a#'>\	4ff#'>\	.
.	32qqaa#\	.
4dd# 4b'>\	4gg#'>\	.
=206	=206	=206
.	32qqbb\	.
4ee 4cc#'>\	4aa#'>\	.
.	32qqccc#\	.
4ff# 4dd#'>\	4bb'>\	.
.	32qqccc#\	.
4aan 4dd#'>\	4bb#X'>\	[
!!LO:LB:g=original
=207||	=207||	=207||
!	!	!LO:HP:b
.	32qqddd#\	>
4gg# 4ee'>\	4ccc#'>\	.
.	32qqccc#\	.
4ff# 4dd#'>\	4bb'>\	.
.	32qqbb\	.
4ee 4cc#'>\	4aa#'>\	.
=208	=208	=208
.	32qqaa#\	.
4dd# 4b'>\	4gg#'>\	.
.	32qqgg#\	.
4cc# 4a#'>\	4ff#'>\	.
.	32qqff#\	]
4b 4g#'>\	4ee#X'>\	.
=209	=209	=209
.	32qqgg#\ 32qqa#\	.
!	!	!LO:HP:b
4f#'</	4ff# 4cc#'>\	<
.	32qqgg#\ 32qqa#\	.
4e#X'</	4ff# 4cc#'>\	.
.	32qqgg#\ 32qqa#\	.
4en'</	4ff# 4cc#'>\	.
=210	=210	=210
.	32qqaa#\ 32qqb\	.
4d#'</	4gg# 4dd#'>\	.
.	32qqgg#\ 32qqa#\	.
4c#'</	4ff# 4ee'>\	.
*clefF4	*	*
4F#^^>\	4fff#^^>\	[
=211	=211	=211
!	!LO:TUP:a:problem:klamra łukowa	!
(>4d# 4F#\	12ff#L 12dd#\	.
.	12cc#\	.
.	12bJ 12f#\	.
!	!	!LO:DY:b:t=f.
4BB\)	4ff# 4dd#'>\	f
*	*Xtuplet	*
(>4dn 4G#\	12ee#XL 12ddn\	.
.	12cc#\	.
.	12bJ 12e#X\	.
=212	=212	=212
4BB\)	4ee#X 4ddn'>\	.
(4d#X 4F#\	12ff#L 12dd#X\	.
.	12cc#\	.
.	12bJ 12f#\	.
4BB\)	4ff# 4dd#'>\	.
=213	=213	=213
!	!	!LO:DY:b:t=pp.
8AA#\L	8ff#L 8a#\	pp
8F#\	8ee#X 8g##X\	.
8A#\	8ff# 8a#\	.
8d#\	8ee#J 8g##\	.
8A#\	4ff# 4a#\	.
8F#\J	.	.
=214	=214	=214
8AA#\L	8aa#L 8cc##X\	.
8G#\	8bb 8dd#\	.
8A#\	8aa# 8cc##\	.
8c##X\	8bbJ 8dd#\	.
8A#\	4aa# 4cc##\	.
8G#\J	.	.
!!LO:PB:g=original
=215	=215	=215
8D#\L	8ff#L 8a#\	.
8A#\	8ee#X 8g##X\	.
8d#\	8ff# 8a#\	.
8e#X\	8ee#J 8g##\	.
8f#\	4ff# 4a#\	.
8a#\J	.	.
*clefG2	*	*
=216	=216	=216
4dd#'>\	4r	.
2r	4ff#'>\	.
.	4fff#'>\	.
=217	=217	=217
.	32qqddd#\	.
4gg# 4ee'>\	4ccc#'>\	.
.	32qqccc#\	.
4ff# 4dd#'>\	4bb'>\	.
.	32qqbb\	.
4ee 4cc#'>\	4aa#'>\	.
=218	=218	=218
.	32qqaa#\	.
4dd# 4b'>\	4gg#'>\	.
.	32qqgg#\	.
4cc# 4a#'>\	4ff#'>\	.
.	32qqff#\	.
4b 4g#'>\	4ee#X'>\	.
=219	=219	=219
!	!	!LO:HP:b
.	32qqgg#\ 32qqa#\	<
4f#'</	4ff# 4cc#'>\	.
.	32qqgg#\ 32qqa#\	.
4e#X'</	4ff# 4cc#'>\	.
.	32qqgg#\ 32qqa#\	.
4en'</	4ff# 4cc#'>\	.
=220	=220	=220
.	32qqaa#\ 32qqb\	.
4d#'</	4gg# 4dd#'>\	.
.	32qqgg#\ 32qqa#\	.
4c#'</	4ff# 4ee'>\	[[
*clefF4	*	*
4F#'>\	4fff#^^>\	.
=221	=221	=221
*	*tuplet	*
!	!LO:TUP:a:problem:klamra łukowa	!LO:DY:b
(>4d# 4F#\	12ff#L 12dd#\	f
.	12cc#\	.
.	12bJ 12f#\	.
4BB\)	4ff# 4dd#'>\	.
*	*Xtuplet	*
(>4dn 4G#\	12ee#XL 12ddn\	.
.	12cc#\	.
.	12bJ 12e#X\	.
!!LO:LB:g=original
=222	=222	=222
4BB\)	4ee#X 4ddn'>\	.
!	!LO:TUP:a:problem:klamra łukowa	!
4d# 4F#\	12ff#L 12dd#X\	.
.	12cc#\	.
.	12bJ 12f#\	.
4BB\	4ff# 4dd#'>\	.
=223	=223	=223
!	!	!LO:DY:b:t=pp.
8C#\L	8ff#L 8a#\	pp
8F#\	8ee#X 8g##X\	.
8A#\	8ff# 8a#\	.
8f#\	8ee#J 8g##\	.
8A#\	4ff# 4a#\	.
8F#\J	.	.
=224	=224	=224
8C#\L	8gg#L 8b\	.
8E#X\	8aa# 8cc#\	.
8B\	8gg# 8b\	.
8e#X\	8aa#J 8cc#\	.
8B\	4gg# 4b\	.
8E#\J	.	.
=225	=225	=225
8FF#\L	8ff#L 8a#\	.
8C#\	8ee#X 8g##X\	.
8F#\	8ff# 8a#\	.
8G##X\	8ee#J 8g##\	.
8A#\	4ff# 4a#\	.
8c#\J	.	.
=226	=226	=226
4f#'>\	4r	.
2r	4ff#'>\	.
.	4fff#\	.
=227	=227	=227
!	!	!LO:DY:b:t=p.
8F#\L	2r	p
8E#X\	.	.
8F#\	.	.
8E#\	.	.
8F#\	4r	.
8E#\J	.	.
!!LO:LB:g=original
=228	=228	=228
8F#\L	2r	.
8E#X\	.	.
8F#\	.	.
8E#\	.	.
8F#\	4r	.
8E#\J	.	.
=229	=229	=229
!	!LO:TX:i:b:t=egualmente.	!
8BB\L	8ff#L 8dd#\	.
8F#\	8cc#\	.
8B\	8b 8f#\	.
8d#\	8ff# 8dd#\	.
8B\	8cc#\	.
8F#\J	8bJ 8f#\	.
=230	=230	=230
8BB\L	8ee#XL 8ddn\	.
8G#\	8cc#\	.
8B\	8b 8e#X\	.
8dn\	8ee# 8dd\	.
8B\	8cc#\	.
8G#\J	8bJ 8e#\	.
=231	=231	=231
8BB\L	8ff#L 8dd#\	.
8F#\	8cc#\	.
8B\	8b 8f#\	.
8d#\	8ff# 8dd#\	.
8B\	8cc#\	.
8F#\J	8bJ 8f#\	.
=232	=232	=232
8BB\L	8gg#L 8dd#\	.
8E#X\	8cc#\	.
8B\	8b 8g#\	.
8d#\	8gg# 8dd#\	.
8B\	8cc#\	.
8E#\J	8bJ 8g#\	.
!!LO:LB:g=original
=233	=233	=233
!	!	!LO:HP:b
8AA#\L	8ff#L 8a#\	<
8F#\	8ee#X 8g##X\	.
8A#\	8ff# 8a#\	.
8d#\	8ggn 8b\	.
8A#\	8gg#X 8b#X\	.
8F#\J	8aanJ 8cc#\	[[
=234	=234	=234
!	!	!LO:HP:b
8AA#\L	8aa#XL 8cc##X\	>
8G#\	8bb 8dd#\	.
8A#\	8aa# 8cc##\	.
!	!LO:N:n=2:acc=n#	!
8c##X\	8aan 8cc#X\	.
8A#\	8gg# 8b#X\	.
8G#\J	8ggnJ 8bn\	]
=235	=235	=235
8D#\L	8ff#L 8a#\	.
8F#\	8ee#X 8g##X\	.
8A#\	8ff# 8a#\	.
8d#\	8ee# 8g##\	.
8A#\	8ff# 8a#\	.
8F#\J	8ee#J 8g##\	.
=236	=236	=236
8C#\L	8ff#L 8a#\	.
8F#\	8ee#X 8g##X\	.
8A#\	8ff# 8a#\	.
8e\	8ee# 8g##\	.
8A#\	8ff# 8a#\	.
8F#\J	8ee#J 8g##\	.
=237	=237	=237
8BB\L	8ff#L 8dd#\	.
8F#\	8cc#\	.
8B\	8b 8f#\	.
8d#\	8ff# 8dd#\	.
8B\	8cc#\	.
8F#\J	8bJ 8f#\	.
!!LO:LB:g=original
=238	=238	=238
8BB\L	8ee#XL 8ddn\	.
8G#\	8cc#\	.
8B\	8b 8e#X\	.
8dn\	8ee# 8dd\	.
8B\	8cc#\	.
8G#\J	8bJ 8e#\	.
=239	=239	=239
8BB\L	8ff#L 8dd#\	.
8F#\	8cc#\	.
8B\	8b 8f#\	.
8d#\	8ff# 8dd#\	.
8B\	8cc#\	.
8F#\J	8bJ 8f#\	.
=240	=240	=240
8BB\L	8gg#L 8dd#\	.
8E#X\	8cc#\	.
8B\	8b 8g#\	.
8d#\	8gg# 8dd#\	.
8B\	8cc#\	.
8E#\J	8bJ 8g#\	.
=241	=241	=241
!	!	!LO:HP:b
8C#\L	8ff#L 8a#\	<
8F#\	8ggn 8b\	.
8A#\	8gg#X 8b#X\	.
8f#\	8aan 8cc#\	.
8A#\	8aa#X 8cc##X\	.
8F#\J	8bbJ 8dd#\	.
=242	=242	=242
8C#\L	8cccnL 8ee\	.
8E#X\	8ccc#X 8ee#X\	.
8B\	8dddn 8ff#\	.
8e#X\	8ddd#X 8ff##X\	.
8B\	8eee 8gg#\	.
8E#\J	8fffnJ 8aan\	[
=243	=243	=243
8FF#\L	4fff#X 4aa#X\	.
8C#\	.	.
8F#\	4r	.
8An\	.	.
8A#X\	4r	.
8c#\J	.	.
=244	=244	=244
4f#\	8ff#\L	.
.	8ee#X\	.
4r	8ff#\	.
.	8ee#\	.
4r	8ff#\	.
.	8ee#\J	.
!!LO:LB:g=original
=245	=245	=245
!	!	!LO:DY:b:t=f.
4BB 4BBB\	8ff#L 8dd#\	f
.	8cc#\	.
8B\L	8b 8f#\	.
8d#\	8ff# 8dd#\	.
8B\	8cc#\	.
8F#\J	8bJ 8f#\	.
=246	=246	=246
8BB\L	8ee#XL 8ddn\	.
8G#\	8cc#\	.
8B\	8b 8e#X\	.
8dn\	8ee# 8dd\	.
8B\	8cc#\	.
8G#\J	8bJ 8e#\	.
=247	=247	=247
8BB\L	8ff#L 8dd#\	.
8F#\	8cc#\	.
8B\	8b 8f#\	.
8d#\	8ff# 8dd#\	.
8B\	8cc#\	.
8F#\J	8bJ 8f#\	.
=248	=248	=248
8BB\L	8gg#L 8dd#\	.
8E#X\	8cc#\	.
8B\	8b 8g#\	.
8d#\	8gg# 8dd#\	.
8B\	8cc#\	.
8E#\J	8bJ 8g#\	.
=249	=249	=249
!	!LO:TX:b:t=cresc:problem:dynamics with extention lines	!LO:HP:b:i:t=cresc:ext=ut
4D# 4DD#\	8aa#L 8ff#\	<
.	8ee#X\	.
8d#\L	8dd# 8a#\	.
8f#\	8aa# 8ff#\	.
8d#\	8ee#\	.
8A#\J	8dd#J 8a#\	.
=250	=250	=250
8D#\L	8aanL 8ff#\	.
8B#X\	8ee#X\	.
8d#\	8dd# 8an\	.
8f#\	8aa 8ff#\	.
8d#\	8ee#\	.
8B#\J	8dd#J 8a\	[
!!LO:PB:g=original
=251	=251	=251
8D#\L	8aa#L 8ff#\	.
8A#\	8ee#X\	.
8d#\	8dd# 8a#\	.
8f#\	8aa# 8ff#\	.
!	!LO:TX:b:t=cresc_en_do. _:problem:dynamics with extention lines	!LO:HP:b:i:t=cresc:ext=ud
8d#\	8ee#\	<
8A#\J	8dd#J 8a#\	.
=252	=252	=252
8D#\L	8bb#XL 8ff#\	.
8An\	8ee#X\	.
8d#\	8dd# 8b#X\	.
8f#\	8bb# 8ff#\	.
8d#\	8ee#\	.
8A\J	8dd#J 8b#\	.
=253	=253	=253
4FF#\	8ccc#L 8aan\	.
.	8gg#\	.
8f#\L	8ff# 8cc#\	.
8an\	8ccc# 8aa\	.
8f#\	8gg#\	.
8c#\J	8ff#J 8cc#\	.
=254	=254	=254
8F#\L	8bb#XL 8aan\	.
8d#\	8gg#\	.
!	!LO:TX:b:t=his	!
8f#\	8ff# 8b#X\	.
8a#\	8bb# 8aa\	.
8f#\	8gg#\	.
8d#\J	8ff#J 8b#\	[[
=255	=255	=255
!	!	!LO:HP:b
4AA#\	8eeeL 8ccc#\	<
.	8bb\	.
*clefG2	*	*
8a#\L	8aan 8ee\	.
8cc#\	8eee 8ccc#\	.
8a#\	8bb\	.
8e\J	8aaJ 8ee\	.
=256	=256	=256
8A#\L	8ddd#L 8ccc#\	.
8f#\	8bb\	.
8a#\	8aan 8dd#\	.
8dd#\	8ddd# 8ccc#\	.
8a#\	8bb\	.
8f#\J	8aaJ 8dd#\	[[
*clefF4	*	*
!!LO:LB:g=original
=257	=257	=257
!	!	!LO:DY:b
4Any 4AAn\	8eeeL 8ccc#\	f
.	8bb\	.
*clefG2	*	*
8an\L	8aan 8ee\	.
!	!	!LO:HP:b
8cc#\	8eee 8ccc#\	>
8a\	8bb\	.
8e\J	8aaJ 8ee\	.
*clefF4	*	*
=258	=258	=258
4F# 4FF#/	8ddd#L 8ccc#\	.
.	8bb\	.
*clefG2	*	*
8an\L	8aan 8dd#\	.
8cc#\	8ddd# 8ccc#\	.
8a\	8bb\	.
8d#\J	8aaJ 8dd#\	.
*clefF4	*	*
=259	=259	=259
4G# 4GG#/	8ddd#L 8bb#X\	.
.	8aa#\	.
8g#\L	8gg# 8dd#\	.
8b#X\	8ddd# 8bb#\	.
8g#\	8aa#\	.
8d#\J	8gg#J 8dd#\	.
=260	=260	=260
4E#X 4EE#X/	8ccc##XL 8bb#X\	.
.	8aa#\	.
8g#\L	8gg# 8cc##X\	.
8b#X\	8ccc## 8bb#\	.
8g#\	8aa#\	.
8c##X\J	8gg#J 8cc##\	.
=261	=261	=261
4Gn 4GGn\	8dddnL 8bb\	.
.	8aan\	.
8gn\L	8ggn 8ddn\	.
8b\	8ddd 8bb\	.
8g\	8aa\	.
8dn\J	8ggJ 8dd\	.
=262	=262	=262
4E 4EE/	8ccc#L 8bb\	.
.	8aan\	]
8gn\L	8ggn 8cc#\	.
8b\	8ccc# 8bb\	.
8g\	8aa\	.
8c#\J	8ggJ 8cc#\	.
!!LO:LB:g=original
=263	=263	=263
!	!	!LO:HP:b
4F# 4FF#\	8ccc#L 8aa#\	<
.	8gg#\	.
8f#\L	8ff# 8cc#\	.
8a#\	8ccc# 8aa#\	.
8f#\	8gg#\	.
8c#\J	8ff#J 8cc#\	.
=264	=264	=264
4a# 4e 4A#\	8gg#\L	.
.	8ff# 8cc#\	.
4r	8f#\	.
.	8gg#\	.
4r	8ff# 8cc#\	.
.	8f#\J	[
=265	=265	=265
!	!	!LO:DY:b
4BB 4BBB/	4r	ff
4d# 4D#\	8ff#L 8dd# 8f#\	.
!	!LO:TX:i:b:t=brioso	!
.	8ff#J 8dd# 8f#\	.
4F# 4FF#/	4ff# 4dd# 4f#\	.
=266	=266	=266
4BB 4BBB/	4r	.
4d# 4D#\	8ee#XL 8dd# 8e#X\	.
.	8ee#J 8dd# 8e#\	.
4G# 4GG#\	4ee# 4dd# 4e#\	.
=267	=267	=267
4BB 4BBB/	4r	.
4d# 4D#\	8ff#L 8dd# 8f#\	.
.	8ff#J 8dd# 8f#\	.
4F# 4FF#/	4ff# 4dd# 4f#\	.
=268	=268	=268
4BB 4BBB/	4r	.
4d# 4D#\	8gg#L 8dd# 8g#\	.
.	8gg#J 8dd# 8g#\	.
4E#X 4EE#X/	4gg# 4dd# 4g#\	.
=269	=269	=269
4AA# 4AAA#/	4r	.
4d# 4D#/	8ff#L 8dd# 8f#\	.
!	!	!LO:HP:b
.	8ff##X 8f##X\	<
4F# 4FF#/	8gg# 8g#\	.
.	8aanJ 8an\	[
!!LO:LB:g=original
=270	=270	=270
!	!	!LO:HP>b
4AA# 4AAA#/	8aa#L 8cc##X 8a#\	>
.	8bb 8b\	.
4c##X 4C##X/	8aa# 8a#\	.
.	8aan 8an\	.
4G# 4GG#/	8gg# 8g#\	.
.	8ggnJ 8gn\	]]
=271	=271	=271
4D# 4DD#/	4r	.
4d# 4D#/	8ff#L 8dd# 8f#\	.
.	8ff#J 8dd# 8f#\	.
4F# 4FF#/	4ff# 4dd# 4f#\	.
=272	=272	=272
4C# 4CC#/	4r	.
4e 4E/	8ff#L 8ee 8f#\	.
.	8ff#J 8ee 8f#\	.
4F# 4FF#/	4ff# 4ee 4f#\	.
=273	=273	=273
!	!	!LO:DY:b:t=mezzo forte
4BB 4BBB/	8f#\L	mf
.	8ff# 8dd#\	.
4d# 4D#/	8ff# 8dd#\	.
.	8f#\	.
4F# 4FF#/	8f#\	.
.	8ff#J 8dd#\	.
=274	=274	=274
4BB 4BBB/	8e#X\L	.
.	8ee 8dd#\	.
4d# 4D#/	8ee 8dd#\	.
.	8e#\	.
4G# 4GG#/	8e#\	.
.	8eeJ 8dd#\	.
=275	=275	=275
4D# 4DD#/	8a#\L	.
.	8aa# 8ff#\	.
4f# 4F#/	8aa# 8ff#\	.
.	8a#\	.
4A# 4AA#/	8a#\	.
.	8aa#J 8ff#\	.
=276	=276	=276
4D# 4DD#/	8an\L	.
.	8aan 8ff#\	.
4f# 4F#/	8aa 8ff#\	.
.	8a\	.
4B#X 4BB#X/	8a\	.
.	8aaJ 8ff#\	.
!!LO:LB:g=original
=277	=277	=277
4F# 4FF#/	8cc#\L	.
.	8ccc# 8aan\	.
4an 4An\	8ccc# 8aa\	.
.	8cc#\	.
4c# 4C#\	8cc#\	.
.	8ccc#J 8aa\	.
=278	=278	=278
4F# 4FF#\	8b#X\L	.
.	8bb#X 8aan\	.
4an 4An\	8bb# 8aa\	.
.	8b#\	.
4d# 4D#\	8b#\	.
.	8bb#J 8aa\	.
=279	=279	=279
4Gn 4GGn\	8cc#\L	.
.	8ccc# 8aa#X\	.
4a#X 4A#X\	8ccc# 8aa#\	.
.	8cc#\	.
4e 4E\	8cc#\	.
.	8ccc#J 8aa#\	.
=280	=280	=280
4G#X 4GG#X\	8ddn\L	.
.	8dddn 8bb\	.
4b 4B\	8ddd 8bb\	.
.	8dd\	.
4e#X 4E#X\	8dd\	.
.	8dddJ 8bb\	.
=281	=281	=281
!	!	!LO:DY:b
8FF#\L	2.ddd# 2.ff# 2.dd#\	ff
8F#\J	.	.
*clefG2	*	*
8B/L	.	.
8d#/	.	.
8f#/	.	.
8b/J	.	.
=282	=282	=282
8dd#^^</	8r	.
8r	8bb 8b\	.
8cc#^^</	8r	.
8r	8bb 8b\	.
8ff#^^</	8r	.
8r	8bb 8b\	.
*clefF4	*	*
=283	=283	=283
8FF#\L	2.ddd# 2.ff# 2.dd#\	.
8F#\J	.	.
*clefG2	*	*
8B/L	.	.
8d#/	.	.
8f#/	.	.
8b/J	.	.
!!LO:LB:g=original
=284	=284	=284
*clefG2	*	*
8dd#^^>\	8r	.
8r	8bb 8b\	.
8cc#^^>\	8r	.
8r	8bb 8b\	.
8ff#^^>\	8r	.
8r	8bb 8b\	.
*clefF4	*	*
=285	=285	=285
!	!	!LO:DY:b
4A# 4E 4FF#\	4aa# 4ff# 4a#\	ff
*clefG2	*	*
*	*8va	*
8ccc#L 8cc#\	8cccc#L 8aaa#\	.
8dd#\J	8aaan\	.
4ccc# 4ee\	8aaa#X 8ggg#\	.
.	8gggn\J	.
*	*X8va	*
=286	=286	=286
8aa#L 8a#\	8aaa#L 8fff#\	.
8b\J	8eee#X\	.
4aa# 4cc#\	8fff# 8eeen\	.
.	8ddd#\	.
8ff#L 8f#\	8fff# 8ccc#\	.
8g#\J	8bb\J	.
=287	=287	=287
4ff# 4a#\	8ccc#L 8aa#\	.
.	8aan\	.
8cc#L 8c#/	8aa#X 8gg#\	.
8d#/J	8ggn\	.
4cc# 4e/	8aa# 8ff#\	.
.	8ee#X\J	.
=288	=288	=288
8a#L 8A#/	8ff#L 8een\	.
8B/J	8dd#\	.
4a# 4c#/	8ff# 8cc#\	.
.	8b\	.
4F#/	8ff# 8a#\	.
.	8f#\J	.
*clefF4	*	*
=289	=289	=289
!	!LO:TX:i:b:t=sempre	!
8FF#\L	2.ddd# 2.ff# 2.dd#\	.
8F#\J	.	.
8B\L	.	.
8d#\	.	.
8f#\	.	.
8b\J	.	.
!!LO:PB:g=original
=290	=290	=290
*clefG2	*	*
8dd#^^>\	8r	.
!	!	!LO:DY:b:rj
8r	8bb 8b\	ff
8cc#^^>\	8r	.
8r	8bb 8b\	.
8ff#^^>\	8r	.
8r	8bb 8b\	.
*clefF4	*	*
=291	=291	=291
!	!	!LO:HP:b:t=cresc.
8FF#\L	2.ddd# 2.gg# 2.dd#\	<
8F#\J	.	.
*clefG2	*	*
8B#X/L	.	.
8d#/	.	.
8g#/	.	.
8b#X/J	.	.
=292	=292	=292
8dd#^^>\	8r	.
8r	8bb#X 8b#X\	.
8cc#^^>\	8r	.
8r	8bb# 8b#\	.
8gg#^^>\	8r	.
8r	8bb# 8b#\	.
*clefF4	*	*
=293	=293	=293
8FF#\L	2.eee 2.gg# 2.ee\	.
8F#\J	.	.
*clefG2	*	*
8c#/L	.	.
8e/	.	.
8g#/	.	.
8cc#/J	.	.
=294	=294	=294
8ee\	8r	.
8r	8ccc# 8cc#\	.
8dd#\	8r	.
8r	8ccc# 8cc#\	.
8gg#\	8r	.
8r	8ccc# 8cc#\	.
*clefF4	*	*
=295	=295	=295
8FF#\L	2.eee#X 2.aa#X 2.ee#X\	.
8F#\J	.	.
*clefG2	*	*
8c##X/L	.	.
8e#X/	.	.
8a#/	.	.
8cc##X/J	.	.
=296	=296	=296
8ee#X\	8r	.
8r	8ccc##X 8cc##X\	.
8dd#\	8r	.
8r	8ccc## 8cc##\	.
8aa#\	8r	.
8r	8ccc## 8cc##\	.
!!LO:LB:g=original
=297	=297	=297
*clefG2	*	*
!	!	!LO:HP:b
8a# 8d# 8F#/	8fff#L 8ff#\	<
8r	8dd#\J	.
8ee#X\	8r	.
8r	8ddd# 8dd#\	.
8aa#\	8r	.
8r	8ddd# 8dd#\	.
=298	=298	=298
8a# 8d# 8F#/	8fff#L 8ff#\	.
8r	8dd#\J	.
8ee#X\	8r	.
8r	8ddd# 8dd#\	.
8aa#\	8r	.
8r	8ddd# 8dd#\	.
=299	=299	=299
8a# 8e 8F#/	8fff#L 8ff#\	.
8r	8ee\J	.
8aa#\	8r	.
8r	8eee 8ee\	.
8ff#\	8r	.
8r	8eee 8ee\	.
=300	=300	=300
8ccc#\	8r	.
8r	8aaa# 8aa#\	.
8bb\	8r	.
8r	8aaa# 8aa#\	.
8ccc#\	8r	.
8r	8aaa# 8aa#\	[
*clefF4	*	*
=301	=301	=301
*	*8va	*
4A# 4E 4FF#\	8eeeeL 8eee\	.
.	8dddd# 8ddd#\	.
*clefG2	*	*
8cc#\L	8cccc# 8ccc#\	.
8b\	8bbb 8bb\	.
8a#\	8aaa# 8aa#\	.
8g#\J	8ggg#J 8gg#\	.
*	*X8va	*
*clefF4	*	*
=302	=302	=302
8f#\L	8fff#L 8ff#\	.
8e\	8eee 8ee\	.
8d#\	8ddd# 8dd#\	.
8c#\	8ccc# 8cc#\	.
8B\	8bb 8b\	.
8A#\J	8aa#J 8a#\	.
=303	=303	=303
8G#\L	8gg#L 8g#/	.
8F#\	8ff# 8f#/	.
8E\	8ee 8e/	.
8D#\	8dd# 8d#/	.
8C#\	8cc# 8c#/	.
8BB\J	8bJ 8B/	.
!!LO:LB:g=original
=304	=304	=304
8AA#\L	8a#<L 8A#</	.
8GG#\	8g#< 8G#</	.
8FF#\	8f#< 8F#</	.
8EE\	8e< 8E</	.
8DD#\	8d#< 8D#</	.
8CC#\J	8c#<J 8C#</	.
=305	=305	=305
!	!	!LO:DY:b
4BBB\	4B< 4BB</	ff
8d#L 8F#\	8dd#L 8f#\	.
8f#J 8B\	8ff#J 8b\	.
*clefG2	*	*
4b 4d#\	4bb 4dd#\	.
*clefF4	*	*
=306	=306	=306
4BB\	8gg#L 8b\	.
.	8aa# 8cc#\	.
8dnL 8E#X\	8bb 8ddn\	.
8e#XJ 8B\	8bb#X 8dd#X\	.
4b 4d\	8ccc# 8ee\	.
!	!LO:TX:b:t=eis	!
.	8dddnJ 8ee#X\	.
=307	=307	=307
4BB\	8ddd#XL 8ff#X\	.
.	8ccc# 8ee\	.
8d#L 8F#\	8bb 8dd#\	.
8f#J 8B\	8aa# 8cc#\	.
4b 4d#\	8gg# 8b\	.
.	8ff#J 8a#\	.
=308	=308	=308
4GG#\	8ee#XL 8b\	.
.	8bb 8dd#\	.
8d#L 8E#X\	8bb 8dd#\	.
8e#XJ 8B\	8ee#J 8b\	.
4b 4d#\	4bb 4dd#\	.
=309	=309	=309
4FFF#\	4bb 4dd# 4b\	.
!	!LO:TX:i:b:t=ritenuto e mar\ncatissimo	!
4FF#\	8B<L 8D#</	.
.	8B< 8E</	.
4D#\	8B< 8E#X</	.
.	8B<J 8F#</	.
=310	=310	=310
4E\	8A#<L 8Gn</	.
.	8A#< 8G#X</	.
4FF#\	8A#< 8Gn</	.
.	8A#< 8F#</	.
4FFF#\	8A#< 8E#X</	.
.	8A#<J 8En</	.
!!LO:LB:g=original
=311	=311	=311
!	!LO:TX:b:i:t=a tempo	!
8BBB\L	4B< 4D#</	.
8FF#\	.	.
8D#\	8BB</L	.
8FF#\	8F#</	.
8D#\	8B</	.
8B\J	8f#</J	.
=312	=312	=312
8BB\L	8b\L	.
8F#\	8f#\	.
8d#\	8B\	.
8F#\J	8f#\	.
4d#\	8b\	.
.	8ff#\J	.
=313	=313	=313
!	!	!LO:DY:b:t=ff.
4BBB\	4bb\	ff
8d#L 8F#\	8dd#L 8f#\	.
8f#J 8B\	8ff#J 8b\	.
4b 4d#\	4bb 4dd#\	.
=314	=314	=314
4BB\	8gg#L 8b\	.
.	8aa# 8cc#\	.
8dnL 8E#X\	8bb 8ddn\	.
8e#XJ 8B\	8bb#X 8dd#X\	.
4b 4d\	8ccc# 8ee\	.
.	8dddnJ 8ee#X\	.
=315	=315	=315
4BB\	8ddd#XL 8ff#X\	.
.	8ccc# 8ee\	.
8d#L 8F#\	8bb 8dd#\	.
8f#J 8B\	8aa# 8cc#\	.
4b 4d#\	8gg# 8b\	.
.	8ff#J 8a#\	.
=316	=316	=316
4GG#\	8ee#XL 8b\	.
.	8bb 8dd#\	.
8d#L 8E#X\	8bb 8dd#\	.
8e#XJ 8B\	8ee#J 8b\	.
4b 4d#\	4bb 4dd#\	.
=317	=317	=317
4BBB\	4B\	.
8d#L 8F#\	8dd#L 8f#\	.
8f#J 8B\	8ff#J 8b\	.
4b 4d#\	4bb 4dd#\	.
!!LO:LB:g=original
=318	=318	=318
4BB\	8gg#L 8b\	.
.	8aa# 8cc#\	.
8dnL 8E#X\	8bb 8ddn\	.
8e#XJ 8B\	8bb#X 8dd#X\	.
4b 4d\	8ccc# 8ee\	.
.	8dddnJ 8ee#X\	.
=319	=319	=319
4BB\	8ddd#XL 8ff#\	.
.	8ccc# 8ee\	.
8d#XL 8F#\	8bb 8dd#\	.
8f#J 8B\	8aa# 8cc#\	.
4b 4d#\	8gg# 8b\	.
.	8ff#J 8a#\	.
=320	=320	=320
4GG#\	8ee#XL 8b\	.
.	8bb 8dd#\	.
8d#L 8E#X\	8bb 8dd#\	.
8e#XJ 8B\	8ee#J 8b\	.
4b 4d#\	4bb 4dd#\	.
=321	=321	=321
!	!LO:TX:i:b:t=con bravura.	!
4BBB\	4B\	.
8d#L 8F#\	8dd#L 8f#\	.
8f#J 8B\	8ff#J 8b\	.
4b 4d#\	4bb 4dd#\	.
=322	=322	=322
4BB\	4b\	.
*clefG2	*	*
8dd#L 8f#\	8ddd#L 8ff#\	.
8ff#J 8b\	8fff#J 8bb\	.
*	*8va	*
4bb 4dd#\	4bbb 4ddd#\	.
*clefF4	*	*
=323	=323	=323
4d# 4F# 4BB\	8dddd#L 8fff#\	.
.	8bbb 8ddd#\	.
4r	8fff#J 8bb\	.
*	*X8va	*
.	8ddd#L 8ff#\	.
4r	8bb 8dd#\	.
.	8ff#J 8b\	.
=324	=324	=324
!	!LO:TX:a:t=P:problem:mixed beam	!
4ryy	8dd#\L 8f#\	.
.	8b\ 8d#\	.
4ryy	8f#\ 8B\	.
.	8d#<J 8F#</	.
!LO:TX:i:b:t=ms.	!	!
8F#L 8BB\	4ryy	.
8D#J 8FF#\	.	.
!!LO:LB:g=original
=325-	=325-	=325-
!LO:TX:i:a:t=md	!	!
4BBB/	2.ryy	.
4r	.	.
4r	.	.
=326	=326	=326
4d# 4F# 4BB\	4bbb 4bb 4dd# 4b\	.
4r	4r	.
4r	4r	.
=327	=327	=327
8BBB\	8BB</	.
*8ba	*	*
!LO:TX:b:t=8va:problem	!	!
4BBBB\	4BB</	.
!LO:N:vis=4	!	!
8r	8ryy	.
!LO:TX:a:i:t=Fine	!	!
4r	4ryy	.
*X8ba	*	*
==	==	==
*-	*-	*-
!!!system-decoration: {(s1,s2)}
!!!RDF**kern: | = vertical stroke
!!!RDF**kern: > = above
!!!RDF**kern: < = below
!!!RDF**kern: N = linked
!!!ENC: Berenika Jozajtis
!!!END: 2021-05-03
!!!EED: Antoni Szymański
!!!EST: 2021-05-25
